X:52
T:Francis Rory Sis
R:strathspey
C:Paul S. Cranford
O:Cape Breton Island
S:http://www.cranfordpub.com
D:currently unrecorded
B:currently unpublished in book form
Z:psc, (re-formatted,updated 9/17/04)
N:
H:                                                        copyrights Cranford Publications, SOCAN
L:1/8
Q:288
M:C
K:Dmix
d>A A/A/A F<AD>d|c>GA>F G/F/E/D/ C>c|d>A A/A/A F<AD>d|c>AB<G A2 (A/B/c)|
d>A A/A/A F<AD>d|c>GA>F G/F/E/D/ C>g|(3fed (3ed^c d>AB<d|c>AB<G A2 (A/B/c)||
||d2 f<a g>ef<d|=c>GA>F G/F/E/D/ C>c|d2 f<a g>ef<d|c>AB<G A2 (A/B/c)|
d>ef<a g>ef<d|=c>GA>F G/F/E/D/ C>E|D>A,D<F G>EF>d|c>AB<G A2 (A/B/c)|]
